icons/filled/trash.svg

<svg xmlns="http://www.w3.org/2000/svg" width="24" height="24" viewBox="0 0 24 24" fill="currentColor"><path d="M20 6a1 1 0 0 1 .117 1.993l-.117 .007h-.081l-.919 11a3 3 0 0 1 -2.824 2.995l-.176 .005h-8c-1.598 0 -2.904 -1.249 -2.992 -2.75l-.005 -.167l-.923 -11.083h-.08a1 1 0 0 1 -.117 -1.993l.117 -.007h16z"/><path d="M14 2a2 2 0 0 1 2 2a1 1 0 0 1 -1.993 .117l-.007 -.117h-4l-.007 .117a1 1 0 0 1 -1.993 -.117a2 2 0 0 1 1.85 -1.995l.15 -.005h4z"/></svg>

<svg xmlns="http://www.w3.org/2000/svg" width="24" height="24" fill="currentColor"><path d="M20 6a1 1 0 0 1 .117 1.993L20 8h-.081L19 19a3 3 0 0 1-2.824 2.995L16 22H8c-1.598 0-2.904-1.249-2.992-2.75l-.005-.167L4.08 8H4a1 1 0 0 1-.117-1.993L4 6zM14 2a2 2 0 0 1 2 2 1 1 0 0 1-1.993.117L14 4h-4l-.007.117A1 1 0 0 1 8 4a2 2 0 0 1 1.85-1.995L10 2z"/></svg>
